build/images/paw-small.svg

<svg width="34" height="34" viewBox="0 0 34 34" fill="none" xmlns="http://www.w3.org/2000/svg">
<path d="M34 17C34 21.5408 32.2317 25.8095 29.0208 29.0208C25.8108 32.2309 21.5421 33.9992 17.0021 34H17C12.4592 34 8.18976 32.2317 4.97917 29.0208C1.76833 25.8095 0 21.5408 0 17C0 12.4592 1.76833 8.18976 4.97917 4.97917C8.18976 1.76833 12.4592 0 17 0H17.0021C21.5421 0.000778202 25.8108 1.7691 29.0208 4.97917C32.2317 8.18976 34 12.4592 34 17Z" fill="#FFFEFD"/>
<path d="M23.4253 14.6621C20.6255 16.2678 21.1023 20.9548 24.1392 20.9548C25.449 20.9548 26.5826 19.9701 27.0873 18.7113C28.2529 15.804 25.829 13.283 23.4253 14.6621Z" fill="#FF7236"/>
<path d="M20.5496 15.2425C23.9089 15.2425 24.9147 9.53814 21.7232 8.60032C20.2692 8.17318 18.6158 9.19808 18.0848 11.0716C17.4889 13.1715 18.6612 15.2425 20.5496 15.2425Z" fill="#FF7236"/>
<path d="M19.6854 25.3964C19.2188 25.2674 18.3909 25.1844 17.5242 25.1724C16.6081 25.1589 15.649 25.2246 15.0285 25.3964C13.3524 25.8633 11.0718 24.7337 11.5722 22.3876C12.035 20.2187 13.698 20.3423 14.0913 18.2868C14.4875 16.2095 16.0274 15.207 17.5242 15.2853C18.9096 15.358 20.2579 16.3571 20.6252 18.2873C21.0162 20.3442 22.6758 20.2194 23.138 22.3876C23.6402 24.7356 21.3548 25.8591 19.6854 25.3964Z" fill="#FF7236"/>
<path d="M14.6371 15.2427C15.5872 15.2427 16.4033 14.6908 16.8568 13.8462C18.2048 11.3347 15.9908 7.85778 13.4632 8.60239C10.2663 9.5428 11.2797 15.2427 14.6371 15.2427Z" fill="#FF7236"/>
<path d="M13.1188 19.0872C14.1974 16.4482 11.6408 13.2245 9.199 14.2388C6.25776 15.4604 7.55498 20.7294 10.789 20.7294C11.8269 20.7294 12.7088 20.0905 13.1188 19.0872Z" fill="#FF7236"/>
<path d="M19.6855 25.3963C19.219 25.2674 18.3911 25.1843 17.5244 25.1723V15.2853C18.9098 15.358 20.258 16.357 20.6254 18.2872C21.0164 20.3441 22.676 20.2194 23.1381 22.3875C23.6404 24.7355 21.3549 25.859 19.6855 25.3963Z" fill="#FF7236"/>
</svg>

<svg width="34" height="34" fill="none" xmlns="http://www.w3.org/2000/svg"><path d="M34 17c0 4.54-1.768 8.81-4.98 12.02A16.89 16.89 0 0117.003 34H17c-4.54 0-8.81-1.768-12.02-4.98A16.89 16.89 0 010 17c0-4.54 1.768-8.81 4.98-12.02A16.879 16.879 0 0117 0h.002c4.54 0 8.809 1.77 12.019 4.98A16.894 16.894 0 0134 17z" fill="#FFFEFD"/><path d="M23.425 14.662c-2.8 1.606-2.323 6.293.714 6.293 1.31 0 2.444-.985 2.948-2.244 1.166-2.907-1.258-5.428-3.662-4.049zm-2.875.58c3.359 0 4.365-5.704 1.173-6.642-1.454-.427-3.107.598-3.638 2.472-.596 2.1.576 4.17 2.465 4.17z" fill="#FF7236"/><path d="M19.685 25.396c-.466-.129-1.294-.212-2.16-.224-.917-.013-1.876.053-2.496.224-1.677.467-3.957-.662-3.457-3.008.463-2.17 2.126-2.046 2.52-4.101.396-2.078 1.935-3.08 3.432-3.002 1.386.073 2.734 1.072 3.101 3.002.391 2.057 2.05 1.932 2.513 4.1.502 2.349-1.783 3.472-3.453 3.01zm-5.048-10.153c.95 0 1.766-.552 2.22-1.397 1.348-2.511-.866-5.988-3.394-5.244-3.197.94-2.183 6.64 1.174 6.64z" fill="#FF7236"/><path d="M13.119 19.087c1.078-2.639-1.478-5.862-3.92-4.848-2.941 1.221-1.644 6.49 1.59 6.49 1.038 0 1.92-.639 2.33-1.642zm6.567 6.309c-.467-.129-1.295-.212-2.162-.224v-9.887c1.386.073 2.734 1.072 3.101 3.002.391 2.057 2.051 1.932 2.513 4.1.502 2.348-1.783 3.472-3.453 3.01z" fill="#FF7236"/></svg>
